X: 111
T: Tripping Upstairs
R: jig
Z: 2012 John Chambers <jc@trillian.mit.edu>
B: "100 Essential Irish Session Tunes" 1995 Dave Mallinson, ed.
M: 6/8
L: 1/8
K: D
AG |\
"D"FAA "G"GBB | "D"FAd fed | "A"cBc ABc | "D"dfe "G"dAG |\
"D"FAd "G"GBd | "D"FAd fed | "A"cBc ABc | "D"dfe d :|
|: Bc |\
"Bm"dBB fBB | fgf fed | "A"cAA eAA | efe edc |\
"Bm"dBB fBB | fgf fed | "A"cBc ABc | "D"dfe d :|

%%sep 2 1 500
%%sep 1 1 500

